img/tutorials.svg

<svg width="100" height="100" viewBox="0 0 100 100" fill="none" xmlns="http://www.w3.org/2000/svg">
<path d="M49.6472 25.2364V7H51.2563V25.2364H49.6472Z" fill="#6C5C99"/>
<path d="M50.1836 93.3545V60.1H51.2563V93.3545C51.2563 93.6508 51.0162 93.8909 50.7199 93.8909C50.4237 93.8909 50.1836 93.6508 50.1836 93.3545Z" fill="#6C5C99"/>
<path d="M29.8018 7H49.6472M69.4927 7H51.2563M49.6472 7V25.2364H51.2563V7M49.6472 7H51.2563M50.1836 60.1V93.3545C50.1836 93.6508 50.4237 93.8909 50.7199 93.8909V93.8909C51.0162 93.8909 51.2563 93.6508 51.2563 93.3545V60.1H50.1836Z" stroke="#6C5C99" stroke-width="3.21818" stroke-linecap="round"/>
<path d="M50.5 69.7594L21 85.2191V15.5818H50.5H80V85.2191L50.5 69.7594Z" fill="#403366"/>
<path d="M69.4918 15.5859L44.7408 15.586C36.4079 28.366 31.7274 39.6935 29.4507 54.4692L38.0795 52.7347C36.6677 56.0888 33.5877 69.7836 32.1891 79.33L50.4826 69.7162C52.2024 60.3116 57.055 50.901 69.1761 32.6476L59.1497 34.3928C61.0493 29.3268 65.9524 21.1539 69.4918 15.5859Z" fill="url(#paint0_linear)"/>
<defs>
<linearGradient id="paint0_linear" x1="49.4712" y1="15.5859" x2="49.4712" y2="79.33" gradientUnits="userSpaceOnUse">
<stop stop-color="#958FB2"/>
<stop offset="1" stop-color="#958FB2" stop-opacity="0"/>
</linearGradient>
</defs>
</svg>

<svg width="100" height="100" viewBox="0 0 100 100" fill="none" xmlns="http://www.w3.org/2000/svg"><path d="M49.647 25.236V7h1.61v18.236h-1.61zm.537 68.119V60.1h1.072v33.255a.536.536 0 11-1.072 0z" fill="#6C5C99"/><path d="M29.802 7h19.845m19.846 0H51.256m-1.609 0v18.236h1.61V7m-1.61 0h1.61m-1.073 53.1v33.255c0 .296.24.536.536.536v0c.296 0 .536-.24.536-.537V60.1h-1.072z" stroke="#6C5C99" stroke-width="3.218" stroke-linecap="round"/><path d="M50.5 69.76L21 85.22V15.581h59v69.637L50.5 69.76z" fill="#403366"/><path d="M69.492 15.586H44.74c-8.333 12.78-13.014 24.108-15.29 38.883l8.629-1.734c-1.412 3.354-4.492 17.049-5.89 26.595l18.293-9.614c1.72-9.404 6.572-18.815 18.693-37.068L59.15 34.393c1.9-5.066 6.802-13.24 10.342-18.807z" fill="url(#paint0_linear)"/><defs><linearGradient id="paint0_linear" x1="49.471" y1="15.586" x2="49.471" y2="79.33" gradientUnits="userSpaceOnUse"><stop stop-color="#958FB2"/><stop offset="1" stop-color="#958FB2" stop-opacity="0"/></linearGradient></defs></svg>
